ui/StatusQ/src/assets/img/icons/status-update.svg

<svg fill="none" height="24" viewBox="0 0 24 24" width="24" xmlns="http://www.w3.org/2000/svg"><path clip-rule="evenodd" d="m12 22c5.5228 0 10-4.4772 10-10 0-5.52285-4.4772-10-10-10-5.52285 0-10 4.47715-10 10 0 5.5228 4.47715 10 10 10zm0-1.5c1.3807 0 2.5-1.1193 2.5-2.5s-1.1193-2.5-2.5-2.5-2.5 1.1193-2.5 2.5 1.1193 2.5 2.5 2.5zm8.5-8.5c0 1.8106-.5661 3.4889-1.5309 4.8677-.1887.2696-.6108.0284-.557-.2962.0578-.3486.0879-.7065.0879-1.0715 0-3.5899-2.9101-6.5-6.5-6.5-3.58985 0-6.5 2.9101-6.5 6.5 0 .365.03008.7229.0879 1.0715.05383.3245-.36835.5657-.55696.2962-.96485-1.3788-1.53094-3.0571-1.53094-4.8677 0-4.69442 3.80558-8.5 8.5-8.5 4.6944 0 8.5 3.80558 8.5 8.5zm-4.5 6c0 .1504.1963.2238.2745.0954.4604-.7566.7255-1.645.7255-2.5954 0-2.7614-2.2386-5-5-5-2.76142 0-5 2.2386-5 5 0 .9504.26515 1.8388.7255 2.5954.07817.1284.2745.055.2745-.0954 0-2.2091 1.79086-4 4-4 2.2091 0 4 1.7909 4 4z" fill="#000" fill-rule="evenodd"/></svg>

<svg width="24" height="24" viewBox="0 0 24 24" fill="none" xmlns="http://www.w3.org/2000/svg">
<path fill-rule="evenodd" clip-rule="evenodd" d="M12 22C17.5228 22 22 17.5228 22 12C22 6.47715 17.5228 2 12 2C6.47715 2 2 6.47715 2 12C2 17.5228 6.47715 22 12 22ZM12 20.5C13.3807 20.5 14.5 19.3807 14.5 18C14.5 16.6193 13.3807 15.5 12 15.5C10.6193 15.5 9.5 16.6193 9.5 18C9.5 19.3807 10.6193 20.5 12 20.5ZM20.5 12C20.5 13.8106 19.9339 15.4889 18.9691 16.8677C18.7804 17.1373 18.3583 16.8961 18.4121 16.5715C18.4699 16.2229 18.5 15.865 18.5 15.5C18.5 11.9101 15.5899 9 12 9C8.41015 9 5.5 11.9101 5.5 15.5C5.5 15.865 5.53008 16.2229 5.5879 16.5715C5.64173 16.896 5.21955 17.1372 5.03094 16.8677C4.06609 15.4889 3.5 13.8106 3.5 12C3.5 7.30558 7.30558 3.5 12 3.5C16.6944 3.5 20.5 7.30558 20.5 12ZM16 18C16 18.1504 16.1963 18.2238 16.2745 18.0954C16.7349 17.3388 17 16.4504 17 15.5C17 12.7386 14.7614 10.5 12 10.5C9.23858 10.5 7 12.7386 7 15.5C7 16.4504 7.26515 17.3388 7.7255 18.0954C7.80367 18.2238 8 18.1504 8 18C8 15.7909 9.79086 14 12 14C14.2091 14 16 15.7909 16 18Z" fill="black"/>
</svg>
